austria/municipalities/70317.svg

<?xml version="1.0" encoding="UTF-8"?>
<!DOCTYPE svg PUBLIC "-//W3C//DTD SVG 1.1//EN" "http://www.w3.org/Graphics/SVG/1.1/DTD/svg11.dtd">
<svg xmlns="http://www.w3.org/2000/svg" version="1.1" width="166px" height="192px" style="shape-rendering:geometricPrecision; text-rendering:geometricPrecision; image-rendering:optimizeQuality; fill-rule:evenodd; clip-rule:evenodd" xmlns:xlink="http://www.w3.org/1999/xlink">
<g><path style="opacity:1" fill="#080504" d="M -0.5,-0.5 C 54.8333,-0.5 110.167,-0.5 165.5,-0.5C 165.5,39.8333 165.5,80.1667 165.5,120.5C 156.594,160.073 132.261,183.74 92.5,191.5C 85.5,191.5 78.5,191.5 71.5,191.5C 30.9271,182.927 6.9271,158.261 -0.5,117.5C -0.5,78.1667 -0.5,38.8333 -0.5,-0.5 Z"/></g>
<g><path style="opacity:1" fill="#d73023" d="M 135.5,29.5 C 128.556,34.7751 122.223,40.7751 116.5,47.5C 113.606,48.8823 111.106,50.8823 109,53.5C 100.803,44.9691 92.3034,36.8025 83.5,29C 82.0024,28.4153 81.0024,28.9153 80.5,30.5C 77.1667,33.1667 74.1667,36.1667 71.5,39.5C 65.8918,43.439 60.8918,48.1057 56.5,53.5C 47.2196,45.5561 38.2196,37.2228 29.5,28.5C 25.8595,30.4754 22.8595,33.142 20.5,36.5C 17.5,38.8333 14.8333,41.5 12.5,44.5C 9.26892,46.2199 6.43559,48.5532 4,51.5C 3.50007,35.5035 3.33341,19.5035 3.5,3.5C 56.1667,3.5 108.833,3.5 161.5,3.5C 161.667,19.5035 161.5,35.5035 161,51.5C 152.864,44.3645 145.03,36.8645 137.5,29C 136.563,28.3083 135.897,28.475 135.5,29.5 Z"/></g>
<g><path style="opacity:1" fill="#fdfdfd" d="M 12.5,44.5 C 16.1002,42.5698 19.1002,39.9031 21.5,36.5C 23.7966,34.7059 25.9633,32.7059 28,30.5C 28.8316,38.5208 28.6649,46.5208 27.5,54.5C 19.8174,62.0166 11.9841,69.35 4,76.5C 3.33333,68.8333 3.33333,61.1667 4,53.5C 7.03787,50.6306 9.87121,47.6306 12.5,44.5 Z"/></g>
<g><path style="opacity:1" fill="#fdfdfd" d="M 81.5,53.5 C 73.5051,61.5991 65.3384,69.5991 57,77.5C 56.5003,69.5069 56.3336,61.5069 56.5,53.5C 62.1082,49.561 67.1082,44.8943 71.5,39.5C 75.067,37.4434 78.2337,34.7768 81,31.5C 81.4997,38.8258 81.6663,46.1591 81.5,53.5 Z"/></g>
<g><path style="opacity:1" fill="#f9f9f8" d="M 135.5,30.5 C 135.831,38.5277 135.498,46.5277 134.5,54.5C 126.484,62.3498 118.318,70.0165 110,77.5C 109.333,69.8333 109.333,62.1667 110,54.5C 112.372,52.2968 114.539,49.9635 116.5,47.5C 123.111,42.2263 129.445,36.5596 135.5,30.5 Z"/></g>
<g><path style="opacity:1" fill="#413633" d="M 135.5,29.5 C 135.5,29.8333 135.5,30.1667 135.5,30.5C 129.445,36.5596 123.111,42.2263 116.5,47.5C 122.223,40.7751 128.556,34.7751 135.5,29.5 Z"/></g>
<g><path style="opacity:1" fill="#787674" d="M 80.5,30.5 C 81.8232,33.9377 82.4898,37.771 82.5,42C 82.4988,46.0152 82.1655,49.8485 81.5,53.5C 81.6663,46.1591 81.4997,38.8258 81,31.5C 78.2337,34.7768 75.067,37.4434 71.5,39.5C 74.1667,36.1667 77.1667,33.1667 80.5,30.5 Z"/></g>
<g><path style="opacity:1" fill="#5f5d5b" d="M 20.5,36.5 C 20.8333,36.5 21.1667,36.5 21.5,36.5C 19.1002,39.9031 16.1002,42.5698 12.5,44.5C 14.8333,41.5 17.5,38.8333 20.5,36.5 Z"/></g>
<g><path style="opacity:1" fill="#332622" d="M 71.5,39.5 C 67.1082,44.8943 62.1082,49.561 56.5,53.5C 60.8918,48.1057 65.8918,43.439 71.5,39.5 Z"/></g>
<g><path style="opacity:1" fill="#fcfcfc" d="M 29.5,55.5 C 38.4324,62.9291 46.9324,70.9291 55,79.5C 55.6667,87.5 55.6667,95.5 55,103.5C 46.3633,95.8643 38.03,87.8643 30,79.5C 29.5003,71.5069 29.3336,63.5069 29.5,55.5 Z"/></g>
<g><path style="opacity:1" fill="#fcfcfc" d="M 136.5,55.5 C 144.78,62.4428 152.78,69.7762 160.5,77.5C 161.665,85.8134 161.832,94.1467 161,102.5C 153.192,94.6028 145.192,86.9362 137,79.5C 136.5,71.5069 136.334,63.5069 136.5,55.5 Z"/></g>
<g><path style="opacity:1" fill="#fbfbfb" d="M 83.5,55.5 C 91.4955,63.3282 99.6621,70.9948 108,78.5C 108.667,86.8333 108.667,95.1667 108,103.5C 100.303,95.4689 92.3032,87.8022 84,80.5C 83.5003,72.1733 83.3336,63.84 83.5,55.5 Z"/></g>
<g><path style="opacity:1" fill="#8e8a87" d="M 80.5,82.5 C 80.56,81.9569 80.8933,81.6236 81.5,81.5C 82.8204,89.6572 82.8204,97.6572 81.5,105.5C 81.8254,97.6484 81.492,89.9818 80.5,82.5 Z"/></g>
<g><path style="opacity:1" fill="#fcfcfc" d="M 25.5,109.5 C 19.2238,114.107 13.5572,119.441 8.5,125.5C 7.5041,125.414 6.67076,125.748 6,126.5C 4.01488,119.286 3.34821,111.953 4,104.5C 11.6968,96.4689 19.6968,88.8022 28,81.5C 28.6667,89.8333 28.6667,98.1667 28,106.5C 26.955,107.373 26.1217,108.373 25.5,109.5 Z"/></g>
<g><path style="opacity:1" fill="#fcfcfc" d="M 80.5,82.5 C 81.492,89.9818 81.8254,97.6484 81.5,105.5C 81.5,105.833 81.5,106.167 81.5,106.5C 76.5,110.833 71.8333,115.5 67.5,120.5C 63.5977,122.893 60.0977,125.893 57,129.5C 56.3333,121.167 56.3333,112.833 57,104.5C 65.0044,97.3283 72.8377,89.9949 80.5,82.5 Z"/></g>
<g><path style="opacity:1" fill="#fcfcfc" d="M 135.5,106.5 C 133.833,107.5 132.5,108.833 131.5,110.5C 124.89,115.441 118.89,121.108 113.5,127.5C 112.504,127.414 111.671,127.748 111,128.5C 110.5,120.841 110.334,113.174 110.5,105.5C 118.162,97.005 126.329,89.005 135,81.5C 135.5,89.8267 135.666,98.16 135.5,106.5 Z"/></g>
<g><path style="opacity:1" fill="#837f7c" d="M 110.5,105.5 C 110.334,113.174 110.5,120.841 111,128.5C 111.671,127.748 112.504,127.414 113.5,127.5C 113.167,128.5 112.5,129.167 111.5,129.5C 110.176,125.893 109.509,121.893 109.5,117.5C 109.501,113.319 109.834,109.319 110.5,105.5 Z"/></g>
<g><path style="opacity:1" fill="#d73023" d="M 67.5,120.5 C 72.8333,116.167 78.1667,111.833 83.5,107.5C 91.8201,115.818 100.487,123.818 109.5,131.5C 110.522,131.145 111.189,130.478 111.5,129.5C 112.5,129.167 113.167,128.5 113.5,127.5C 120.11,122.559 126.11,116.892 131.5,110.5C 133.411,109.925 135.078,108.925 136.5,107.5C 144.516,114.196 152.182,121.362 159.5,129C 144.847,170.342 115.514,189.675 71.5,187C 39.6217,181.122 18.1217,162.955 7,132.5C 6.16681,129.829 6.66681,127.496 8.5,125.5C 14.7762,120.893 20.4428,115.559 25.5,109.5C 27.144,108.634 28.8107,108.134 30.5,108C 39.0118,115.846 47.5118,123.679 56,131.5C 60.3229,128.344 64.1563,124.677 67.5,120.5 Z"/></g>
<g><path style="opacity:1" fill="#642117" d="M 135.5,106.5 C 136.167,106.5 136.5,106.833 136.5,107.5C 135.078,108.925 133.411,109.925 131.5,110.5C 132.5,108.833 133.833,107.5 135.5,106.5 Z"/></g>
<g><path style="opacity:1" fill="#461d15" d="M 81.5,106.5 C 82.4916,106.328 83.1583,106.662 83.5,107.5C 78.1667,111.833 72.8333,116.167 67.5,120.5C 71.8333,115.5 76.5,110.833 81.5,106.5 Z"/></g>
<g><path style="opacity:1" fill="#41231d" d="M 131.5,110.5 C 126.11,116.892 120.11,122.559 113.5,127.5C 118.89,121.108 124.89,115.441 131.5,110.5 Z"/></g>
<g><path style="opacity:1" fill="#3d1f18" d="M 25.5,109.5 C 20.4428,115.559 14.7762,120.893 8.5,125.5C 13.5572,119.441 19.2238,114.107 25.5,109.5 Z"/></g>
<g><path style="opacity:1" fill="#fdfdfd" d="M -0.5,117.5 C 6.9271,158.261 30.9271,182.927 71.5,191.5C 47.5,191.5 23.5,191.5 -0.5,191.5C -0.5,166.833 -0.5,142.167 -0.5,117.5 Z"/></g>
<g><path style="opacity:1" fill="#fdfdfd" d="M 165.5,120.5 C 165.5,144.167 165.5,167.833 165.5,191.5C 141.167,191.5 116.833,191.5 92.5,191.5C 132.261,183.74 156.594,160.073 165.5,120.5 Z"/></g>
</svg>

<svg xmlns="http://www.w3.org/2000/svg" width="166" height="192" style="shape-rendering:geometricPrecision;text-rendering:geometricPrecision;image-rendering:optimizeQuality;fill-rule:evenodd;clip-rule:evenodd"><path style="opacity:1" fill="#080504" d="M-.5-.5h166v121c-8.906 39.573-33.239 63.24-73 71h-21c-40.573-8.573-64.573-33.239-72-74V-.5z"/><path style="opacity:1" fill="#d73023" d="M135.5 29.5a121.023 121.023 0 0 0-19 18c-2.894 1.382-5.394 3.382-7.5 6A441.091 441.091 0 0 0 83.5 29c-1.498-.585-2.498-.085-3 1.5a57.458 57.458 0 0 0-9 9c-5.608 3.939-10.608 8.606-15 14a473.998 473.998 0 0 1-27-25c-3.64 1.975-6.64 4.642-9 8-3 2.333-5.667 5-8 8-3.231 1.72-6.064 4.053-8.5 7a1152.44 1152.44 0 0 1-.5-48h158c.167 16.003 0 32.004-.5 48A373.286 373.286 0 0 1 137.5 29c-.937-.692-1.603-.525-2 .5z"/><path style="opacity:1" fill="#fdfdfd" d="M12.5 44.5c3.6-1.93 6.6-4.597 9-8a54.554 54.554 0 0 0 6.5-6c.832 8.02.665 16.02-.5 24A729.31 729.31 0 0 1 4 76.5a132.5 132.5 0 0 1 0-23c3.038-2.87 5.871-5.87 8.5-9zM81.5 53.5c-7.995 8.1-16.162 16.1-24.5 24-.5-7.993-.666-15.993-.5-24 5.608-3.939 10.608-8.606 15-14 3.567-2.057 6.734-4.723 9.5-8 .5 7.326.666 14.66.5 22z"/><path style="opacity:1" fill="#f9f9f8" d="M135.5 30.5a144.844 144.844 0 0 1-1 24 794.62 794.62 0 0 1-24.5 23 132.434 132.434 0 0 1 0-23 63.68 63.68 0 0 0 6.5-7 226.715 226.715 0 0 0 19-17z"/><path style="opacity:1" fill="#413633" d="M135.5 29.5v1a226.715 226.715 0 0 1-19 17 121.023 121.023 0 0 1 19-18z"/><path style="opacity:1" fill="#787674" d="M80.5 30.5c1.323 3.438 1.99 7.271 2 11.5-.001 4.015-.335 7.849-1 11.5.166-7.34 0-14.674-.5-22-2.766 3.277-5.933 5.943-9.5 8a57.458 57.458 0 0 1 9-9z"/><path style="opacity:1" fill="#5f5d5b" d="M20.5 36.5h1c-2.4 3.403-5.4 6.07-9 8 2.333-3 5-5.667 8-8z"/><path style="opacity:1" fill="#332622" d="M71.5 39.5c-4.392 5.394-9.392 10.061-15 14 4.392-5.394 9.392-10.061 15-14z"/><path style="opacity:1" fill="#fcfcfc" d="M29.5 55.5a287.275 287.275 0 0 1 25.5 24c.667 8 .667 16 0 24a423.468 423.468 0 0 1-25-24c-.5-7.993-.666-15.993-.5-24zM136.5 55.5a370.499 370.499 0 0 1 24 22 104.719 104.719 0 0 1 .5 25 615.51 615.51 0 0 0-24-23c-.5-7.993-.666-15.993-.5-24z"/><path style="opacity:1" fill="#fbfbfb" d="M83.5 55.5a801.245 801.245 0 0 0 24.5 23c.667 8.333.667 16.667 0 25a389.663 389.663 0 0 0-24-23c-.5-8.327-.666-16.66-.5-25z"/><path style="opacity:1" fill="#8e8a87" d="M80.5 82.5c.06-.543.393-.876 1-1 1.32 8.157 1.32 16.157 0 24 .325-7.852-.008-15.518-1-23z"/><path style="opacity:1" fill="#fcfcfc" d="M25.5 109.5a96.331 96.331 0 0 0-17 16c-.996-.086-1.83.248-2.5 1a61.933 61.933 0 0 1-2-22 389.606 389.606 0 0 1 24-23c.667 8.333.667 16.667 0 25a10.51 10.51 0 0 0-2.5 3zM80.5 82.5c.992 7.482 1.325 15.148 1 23v1c-5 4.333-9.667 9-14 14-3.902 2.393-7.402 5.393-10.5 9a156.492 156.492 0 0 1 0-25 735.42 735.42 0 0 0 23.5-22zM135.5 106.5c-1.667 1-3 2.333-4 4a108.32 108.32 0 0 0-18 17c-.996-.086-1.829.248-2.5 1-.5-7.659-.666-15.326-.5-23a277.69 277.69 0 0 1 24.5-24 313 313 0 0 1 .5 25z"/><path style="opacity:1" fill="#837f7c" d="M110.5 105.5c-.166 7.674 0 15.341.5 23 .671-.752 1.504-1.086 2.5-1-.333 1-1 1.667-2 2-1.324-3.607-1.991-7.607-2-12 .001-4.181.334-8.181 1-12z"/><path style="opacity:1" fill="#d73023" d="m67.5 120.5 16-13a445.418 445.418 0 0 0 26 24c1.022-.355 1.689-1.022 2-2 1-.333 1.667-1 2-2a108.32 108.32 0 0 0 18-17 11.743 11.743 0 0 0 5-3 283.881 283.881 0 0 1 23 21.5c-14.653 41.342-43.986 60.675-88 58-31.878-5.878-53.378-24.045-64.5-54.5-.833-2.671-.333-5.004 1.5-7a96.331 96.331 0 0 0 17-16c1.644-.866 3.31-1.366 5-1.5 8.512 7.846 17.012 15.679 25.5 23.5a59.938 59.938 0 0 0 11.5-11z"/><path style="opacity:1" fill="#642117" d="M135.5 106.5c.667 0 1 .333 1 1a11.743 11.743 0 0 1-5 3c1-1.667 2.333-3 4-4z"/><path style="opacity:1" fill="#461d15" d="M81.5 106.5c.992-.172 1.658.162 2 1l-16 13c4.333-5 9-9.667 14-14z"/><path style="opacity:1" fill="#41231d" d="M131.5 110.5a108.32 108.32 0 0 1-18 17 108.32 108.32 0 0 1 18-17z"/><path style="opacity:1" fill="#3d1f18" d="M25.5 109.5a96.331 96.331 0 0 1-17 16 96.331 96.331 0 0 1 17-16z"/><path style="opacity:1" fill="#fdfdfd" d="M-.5 117.5c7.427 40.761 31.427 65.427 72 74h-72v-74zM165.5 120.5v71h-73c39.761-7.76 64.094-31.427 73-71z"/></svg>
